icons/modern/computer-disk.svg

<svg width="32" height="32" viewBox="0 0 32 32" fill="none" xmlns="http://www.w3.org/2000/svg">
<g filter="url(#filter0_ii_18_19772)">
<rect x="2.29749" y="2.10938" width="27.7812" height="27.7812" rx="2.5" fill="url(#paint0_linear_18_19772)"/>
</g>
<rect x="2.29749" y="2.10938" width="27.7812" height="27.7812" rx="2.5" fill="url(#paint1_linear_18_19772)"/>
<rect x="2.29749" y="2.10938" width="27.7812" height="27.7812" rx="2.5" fill="url(#paint2_radial_18_19772)"/>
<g filter="url(#filter1_f_18_19772)">
<path d="M29.5436 11.5742V21.5273H21.6014C20.6073 21.5273 19.8014 20.7215 19.8014 19.7273V13.3742C19.8014 12.3801 20.6073 11.5742 21.6014 11.5742H29.5436Z" fill="#4A2B7F"/>
</g>
<g filter="url(#filter2_d_18_19772)">
<path fill-rule="evenodd" clip-rule="evenodd" d="M16.1881 27.6719C22.6343 27.6719 27.86 22.4462 27.86 16C27.86 9.5538 22.6343 4.32812 16.1881 4.32812C9.74191 4.32812 4.51624 9.5538 4.51624 16C4.51624 22.4462 9.74191 27.6719 16.1881 27.6719ZM16.1881 18.7578C17.7112 18.7578 18.9459 17.5231 18.9459 16C18.9459 14.4769 17.7112 13.2422 16.1881 13.2422C14.665 13.2422 13.4303 14.4769 13.4303 16C13.4303 17.5231 14.665 18.7578 16.1881 18.7578Z" fill="url(#paint3_linear_18_19772)"/>
<path fill-rule="evenodd" clip-rule="evenodd" d="M16.1881 27.6719C22.6343 27.6719 27.86 22.4462 27.86 16C27.86 9.5538 22.6343 4.32812 16.1881 4.32812C9.74191 4.32812 4.51624 9.5538 4.51624 16C4.51624 22.4462 9.74191 27.6719 16.1881 27.6719ZM16.1881 18.7578C17.7112 18.7578 18.9459 17.5231 18.9459 16C18.9459 14.4769 17.7112 13.2422 16.1881 13.2422C14.665 13.2422 13.4303 14.4769 13.4303 16C13.4303 17.5231 14.665 18.7578 16.1881 18.7578Z" fill="url(#paint4_radial_18_19772)"/>
<path fill-rule="evenodd" clip-rule="evenodd" d="M16.1881 27.6719C22.6343 27.6719 27.86 22.4462 27.86 16C27.86 9.5538 22.6343 4.32812 16.1881 4.32812C9.74191 4.32812 4.51624 9.5538 4.51624 16C4.51624 22.4462 9.74191 27.6719 16.1881 27.6719ZM16.1881 18.7578C17.7112 18.7578 18.9459 17.5231 18.9459 16C18.9459 14.4769 17.7112 13.2422 16.1881 13.2422C14.665 13.2422 13.4303 14.4769 13.4303 16C13.4303 17.5231 14.665 18.7578 16.1881 18.7578Z" fill="url(#paint5_radial_18_19772)"/>
<path fill-rule="evenodd" clip-rule="evenodd" d="M16.1881 27.6719C22.6343 27.6719 27.86 22.4462 27.86 16C27.86 9.5538 22.6343 4.32812 16.1881 4.32812C9.74191 4.32812 4.51624 9.5538 4.51624 16C4.51624 22.4462 9.74191 27.6719 16.1881 27.6719ZM16.1881 18.7578C17.7112 18.7578 18.9459 17.5231 18.9459 16C18.9459 14.4769 17.7112 13.2422 16.1881 13.2422C14.665 13.2422 13.4303 14.4769 13.4303 16C13.4303 17.5231 14.665 18.7578 16.1881 18.7578Z" fill="url(#paint6_radial_18_19772)"/>
</g>
<g filter="url(#filter3_f_18_19772)">
<path fill-rule="evenodd" clip-rule="evenodd" d="M16.1881 26.9219C22.2201 26.9219 27.11 22.032 27.11 16C27.11 9.96802 22.2201 5.07812 16.1881 5.07812C10.1561 5.07812 5.26624 9.96802 5.26624 16C5.26624 22.032 10.1561 26.9219 16.1881 26.9219ZM19.3287 16C19.3287 17.5231 17.7112 19.25 16.1881 19.25C14.665 19.25 12.86 17.5231 12.86 16C12.86 14.4769 14.665 12.6562 16.1881 12.6562C17.7112 12.6562 19.3287 14.4769 19.3287 16Z" fill="url(#paint7_linear_18_19772)"/>
</g>
<path fill-rule="evenodd" clip-rule="evenodd" d="M16.1881 19.6133C18.1837 19.6133 19.8014 17.9956 19.8014 16C19.8014 14.0044 18.1837 12.3867 16.1881 12.3867C14.1926 12.3867 12.5748 14.0044 12.5748 16C12.5748 17.9956 14.1926 19.6133 16.1881 19.6133ZM18.9459 16C18.9459 17.5231 17.7112 18.7578 16.1881 18.7578C14.665 18.7578 13.4303 17.5231 13.4303 16C13.4303 14.4769 14.665 13.2422 16.1881 13.2422C17.7112 13.2422 18.9459 14.4769 18.9459 16Z" fill="url(#paint8_radial_18_19772)"/>
<g filter="url(#filter4_f_18_19772)">
<path d="M13.4453 13.6478C14.1079 12.8758 15.0909 12.3867 16.1881 12.3867C17.1978 12.3867 18.1108 12.8009 18.7664 13.4686L23.582 8.65303C23.7768 8.45818 23.7781 8.14149 23.5751 7.95506C21.6307 6.16867 19.0367 5.07812 16.1881 5.07812C13.1721 5.07812 10.4417 6.3006 8.46519 8.27707C8.40009 8.34218 8.3358 8.40811 8.27234 8.47484L13.4453 13.6478Z" fill="url(#paint9_linear_18_19772)"/>
</g>
<g filter="url(#filter5_f_18_19772)">
<path d="M18.5403 18.7429C17.9082 19.2855 17.0865 19.6133 16.1881 19.6133C15.2022 19.6133 14.3086 19.2185 13.6567 18.5784L8.84326 23.3918C8.64758 23.5874 8.64731 23.9058 8.85228 24.0917C10.791 25.8504 13.3644 26.9219 16.1881 26.9219C18.8271 26.9219 21.2475 25.986 23.1354 24.4279C23.334 24.264 23.5268 24.0932 23.7133 23.9158L18.5403 18.7429Z" fill="url(#paint10_linear_18_19772)"/>
</g>
<g filter="url(#filter6_f_18_19772)">
<path d="M16.1881 19.6383C18.1975 19.6383 19.8264 18.0094 19.8264 16C19.8264 13.9906 18.1975 12.3617 16.1881 12.3617C14.1787 12.3617 12.5498 13.9906 12.5498 16C12.5498 18.0094 14.1787 19.6383 16.1881 19.6383Z" stroke="#EFA141" stroke-width="0.05"/>
</g>
<g filter="url(#filter7_f_18_19772)">
<path d="M28.235 11.5742C28.235 11.5742 27.403 18.625 26.1333 21.5273H21.4421C20.4475 21.5273 19.6412 20.7215 19.6412 19.7273V13.3742C19.6412 12.3801 20.4475 11.5742 21.4421 11.5742H28.235Z" fill="url(#paint11_linear_18_19772)"/>
</g>
<g filter="url(#filter8_ii_18_19772)">
<path d="M30.0787 11.0234V20.9766H22.1366C21.1424 20.9766 20.3365 20.1707 20.3365 19.1766V12.8234C20.3365 11.8293 21.1424 11.0234 22.1366 11.0234H30.0787Z" fill="url(#paint12_linear_18_19772)"/>
</g>
<defs>
<filter id="filter0_ii_18_19772" x="1.79749" y="2.10938" width="28.7812" height="27.7812" filterUnits="userSpaceOnUse" color-interpolation-filters="sRGB">
<feFlood flood-opacity="0" result="BackgroundImageFix"/>
<feBlend mode="normal" in="SourceGraphic" in2="BackgroundImageFix" result="shape"/>
<feColorMatrix in="SourceAlpha" type="matrix" values="0 0 0 0 0 0 0 0 0 0 0 0 0 0 0 0 0 0 127 0" result="hardAlpha"/>
<feOffset dx="0.5"/>
<feGaussianBlur stdDeviation="0.25"/>
<feComposite in2="hardAlpha" operator="arithmetic" k2="-1" k3="1"/>
<feColorMatrix type="matrix" values="0 0 0 0 0.294118 0 0 0 0 0.239216 0 0 0 0 0.45098 0 0 0 1 0"/>
<feBlend mode="normal" in2="shape" result="effect1_innerShadow_18_19772"/>
<feColorMatrix in="SourceAlpha" type="matrix" values="0 0 0 0 0 0 0 0 0 0 0 0 0 0 0 0 0 0 127 0" result="hardAlpha"/>
<feOffset dx="-0.5"/>
<feGaussianBlur stdDeviation="0.25"/>
<feComposite in2="hardAlpha" operator="arithmetic" k2="-1" k3="1"/>
<feColorMatrix type="matrix" values="0 0 0 0 0.439216 0 0 0 0 0.458824 0 0 0 0 0.756863 0 0 0 1 0"/>
<feBlend mode="normal" in2="effect1_innerShadow_18_19772" result="effect2_innerShadow_18_19772"/>
</filter>
<filter id="filter1_f_18_19772" x="19.3014" y="11.0742" width="10.7422" height="10.9531" filterUnits="userSpaceOnUse" color-interpolation-filters="sRGB">
<feFlood flood-opacity="0" result="BackgroundImageFix"/>
<feBlend mode="normal" in="SourceGraphic" in2="BackgroundImageFix" result="shape"/>
<feGaussianBlur stdDeviation="0.25" result="effect1_foregroundBlur_18_19772"/>
</filter>
<filter id="filter2_d_18_19772" x="3.31624" y="3.77812" width="24.9438" height="24.9438" filterUnits="userSpaceOnUse" color-interpolation-filters="sRGB">
<feFlood flood-opacity="0" result="BackgroundImageFix"/>
<feColorMatrix in="SourceAlpha" type="matrix" values="0 0 0 0 0 0 0 0 0 0 0 0 0 0 0 0 0 0 127 0" result="hardAlpha"/>
<feOffset dx="-0.4" dy="0.25"/>
<feGaussianBlur stdDeviation="0.4"/>
<feComposite in2="hardAlpha" operator="out"/>
<feColorMatrix type="matrix" values="0 0 0 0 0.278431 0 0 0 0 0.196078 0 0 0 0 0.529412 0 0 0 1 0"/>
<feBlend mode="normal" in2="BackgroundImageFix" result="effect1_dropShadow_18_19772"/>
<feBlend mode="normal" in="SourceGraphic" in2="effect1_dropShadow_18_19772" result="shape"/>
</filter>
<filter id="filter3_f_18_19772" x="5.01624" y="4.82812" width="22.3438" height="22.3438" filterUnits="userSpaceOnUse" color-interpolation-filters="sRGB">
<feFlood flood-opacity="0" result="BackgroundImageFix"/>
<feBlend mode="normal" in="SourceGraphic" in2="BackgroundImageFix" result="shape"/>
<feGaussianBlur stdDeviation="0.125" result="effect1_foregroundBlur_18_19772"/>
</filter>
<filter id="filter4_f_18_19772" x="8.02234" y="4.82812" width="15.9554" height="9.06958" filterUnits="userSpaceOnUse" color-interpolation-filters="sRGB">
<feFlood flood-opacity="0" result="BackgroundImageFix"/>
<feBlend mode="normal" in="SourceGraphic" in2="BackgroundImageFix" result="shape"/>
<feGaussianBlur stdDeviation="0.125" result="effect1_foregroundBlur_18_19772"/>
</filter>
<filter id="filter5_f_18_19772" x="8.44751" y="18.3284" width="15.5157" height="8.84351" filterUnits="userSpaceOnUse" color-interpolation-filters="sRGB">
<feFlood flood-opacity="0" result="BackgroundImageFix"/>
<feBlend mode="normal" in="SourceGraphic" in2="BackgroundImageFix" result="shape"/>
<feGaussianBlur stdDeviation="0.125" result="effect1_foregroundBlur_18_19772"/>
</filter>
<filter id="filter6_f_18_19772" x="12.4248" y="12.2367" width="7.52666" height="7.52666" filterUnits="userSpaceOnUse" color-interpolation-filters="sRGB">
<feFlood flood-opacity="0" result="BackgroundImageFix"/>
<feBlend mode="normal" in="SourceGraphic" in2="BackgroundImageFix" result="shape"/>
<feGaussianBlur stdDeviation="0.05" result="effect1_foregroundBlur_18_19772"/>
</filter>
<filter id="filter7_f_18_19772" x="18.6412" y="10.5742" width="10.5938" height="11.9531" filterUnits="userSpaceOnUse" color-interpolation-filters="sRGB">
<feFlood flood-opacity="0" result="BackgroundImageFix"/>
<feBlend mode="normal" in="SourceGraphic" in2="BackgroundImageFix" result="shape"/>
<feGaussianBlur stdDeviation="0.5" result="effect1_foregroundBlur_18_19772"/>
</filter>
<filter id="filter8_ii_18_19772" x="20.3365" y="10.8234" width="9.94219" height="10.3031" filterUnits="userSpaceOnUse" color-interpolation-filters="sRGB">
<feFlood flood-opacity="0" result="BackgroundImageFix"/>
<feBlend mode="normal" in="SourceGraphic" in2="BackgroundImageFix" result="shape"/>
<feColorMatrix in="SourceAlpha" type="matrix" values="0 0 0 0 0 0 0 0 0 0 0 0 0 0 0 0 0 0 127 0" result="hardAlpha"/>
<feOffset dy="0.2"/>
<feGaussianBlur stdDeviation="0.075"/>
<feComposite in2="hardAlpha" operator="arithmetic" k2="-1" k3="1"/>
<feColorMatrix type="matrix" values="0 0 0 0 0.94902 0 0 0 0 0.913725 0 0 0 0 0.988235 0 0 0 1 0"/>
<feBlend mode="normal" in2="shape" result="effect1_innerShadow_18_19772"/>
<feColorMatrix in="SourceAlpha" type="matrix" values="0 0 0 0 0 0 0 0 0 0 0 0 0 0 0 0 0 0 127 0" result="hardAlpha"/>
<feOffset dx="0.2" dy="-0.2"/>
<feGaussianBlur stdDeviation="0.15"/>
<feComposite in2="hardAlpha" operator="arithmetic" k2="-1" k3="1"/>
<feColorMatrix type="matrix" values="0 0 0 0 0.713726 0 0 0 0 0.564706 0 0 0 0 0.823529 0 0 0 1 0"/>
<feBlend mode="normal" in2="effect1_innerShadow_18_19772" result="effect2_innerShadow_18_19772"/>
</filter>
<linearGradient id="paint0_linear_18_19772" x1="16.1881" y1="2.10937" x2="16.1881" y2="29.8906" gradientUnits="userSpaceOnUse">
<stop stop-color="#6261B8"/>
<stop offset="1" stop-color="#5D3687"/>
</linearGradient>
<linearGradient id="paint1_linear_18_19772" x1="30.4537" y1="29.8906" x2="22.0162" y2="22.5" gradientUnits="userSpaceOnUse">
<stop stop-color="#5E328B"/>
<stop offset="1" stop-color="#5E328B" stop-opacity="0"/>
</linearGradient>
<radialGradient id="paint2_radial_18_19772" cx="0" cy="0" r="1" gradientUnits="userSpaceOnUse" gradientTransform="translate(30.0787 20.8125) rotate(90) scale(8.4375 0.937498)">
<stop offset="0.196296" stop-color="#644D98"/>
<stop offset="1" stop-color="#644D98" stop-opacity="0"/>
</radialGradient>
<linearGradient id="paint3_linear_18_19772" x1="16.1881" y1="4.32812" x2="16.1881" y2="27.6719" gradientUnits="userSpaceOnUse">
<stop stop-color="#E9CE53"/>
<stop offset="1" stop-color="#FF974E"/>
</linearGradient>
<radialGradient id="paint4_radial_18_19772" cx="0" cy="0" r="1" gradientUnits="userSpaceOnUse" gradientTransform="translate(17.2037 12.125) rotate(113.08) scale(16.8996 14.796)">
<stop offset="0.867949" stop-color="#FF684C" stop-opacity="0"/>
<stop offset="0.986913" stop-color="#FF684C"/>
</radialGradient>
<radialGradient id="paint5_radial_18_19772" cx="0" cy="0" r="1" gradientUnits="userSpaceOnUse" gradientTransform="translate(21.4219 19.5025) rotate(-148.057) scale(19.0988 14.9191)">
<stop offset="0.886595" stop-color="#B99C5E" stop-opacity="0"/>
<stop offset="0.978574" stop-color="#B99C5E"/>
</radialGradient>
<radialGradient id="paint6_radial_18_19772" cx="0" cy="0" r="1" gradientUnits="userSpaceOnUse" gradientTransform="translate(13.2201 17.9277) rotate(-37.4054) scale(15.4464)">
<stop offset="0.894403" stop-color="#FFE86D" stop-opacity="0"/>
<stop offset="0.991068" stop-color="#FFE86D"/>
</radialGradient>
<linearGradient id="paint7_linear_18_19772" x1="16.1881" y1="9.6875" x2="16.1881" y2="26.9219" gradientUnits="userSpaceOnUse">
<stop stop-color="#F4BD5B"/>
<stop offset="1" stop-color="#FF9E54"/>
</linearGradient>
<radialGradient id="paint8_radial_18_19772" cx="0" cy="0" r="1" gradientUnits="userSpaceOnUse" gradientTransform="translate(13.3287 16) scale(7.6875)">
<stop offset="0.62037" stop-color="#F8AE59"/>
<stop offset="1" stop-color="#D48B52"/>
</radialGradient>
<linearGradient id="paint9_linear_18_19772" x1="23.7277" y1="8.4375" x2="12.6413" y2="8.4375" gradientUnits="userSpaceOnUse">
<stop stop-color="#FFF25C"/>
<stop offset="1" stop-color="#FFF25C" stop-opacity="0"/>
</linearGradient>
<linearGradient id="paint10_linear_18_19772" x1="12.1725" y1="19.2813" x2="18.36" y2="21.1563" gradientUnits="userSpaceOnUse">
<stop stop-color="#FFD05A"/>
<stop offset="1" stop-color="#FFD05A" stop-opacity="0"/>
</linearGradient>
<linearGradient id="paint11_linear_18_19772" x1="24.5145" y1="11.5742" x2="24.5145" y2="21.5273" gradientUnits="userSpaceOnUse">
<stop stop-color="#E86F47" stop-opacity="0"/>
<stop offset="0.0001" stop-color="#C87C46"/>
<stop offset="1" stop-color="#E86F47"/>
</linearGradient>
<linearGradient id="paint12_linear_18_19772" x1="25.2076" y1="11.0234" x2="25.2076" y2="20.9766" gradientUnits="userSpaceOnUse">
<stop offset="0.204867" stop-color="#F8DFFF"/>
<stop offset="0.71978" stop-color="#C5ADDD"/>
</linearGradient>
</defs>
</svg>

<svg width="32" height="32" fill="none" xmlns="http://www.w3.org/2000/svg"><g filter="url(#a)"><rect x="2.297" y="2.109" width="27.781" height="27.781" rx="2.5" fill="url(#b)"/></g><rect x="2.297" y="2.109" width="27.781" height="27.781" rx="2.5" fill="url(#c)"/><rect x="2.297" y="2.109" width="27.781" height="27.781" rx="2.5" fill="url(#d)"/><g filter="url(#e)"><path d="M29.544 11.574v9.953H21.6a1.8 1.8 0 0 1-1.8-1.8v-6.353a1.8 1.8 0 0 1 1.8-1.8h7.943Z" fill="#4A2B7F"/></g><g filter="url(#f)" fill-rule="evenodd" clip-rule="evenodd"><path d="M16.188 27.672c6.446 0 11.672-5.226 11.672-11.672 0-6.446-5.226-11.672-11.672-11.672C9.742 4.328 4.516 9.554 4.516 16c0 6.446 5.226 11.672 11.672 11.672Zm0-8.914a2.758 2.758 0 1 0 0-5.516 2.758 2.758 0 0 0 0 5.516Z" fill="url(#g)"/><path d="M16.188 27.672c6.446 0 11.672-5.226 11.672-11.672 0-6.446-5.226-11.672-11.672-11.672C9.742 4.328 4.516 9.554 4.516 16c0 6.446 5.226 11.672 11.672 11.672Zm0-8.914a2.758 2.758 0 1 0 0-5.516 2.758 2.758 0 0 0 0 5.516Z" fill="url(#h)"/><path d="M16.188 27.672c6.446 0 11.672-5.226 11.672-11.672 0-6.446-5.226-11.672-11.672-11.672C9.742 4.328 4.516 9.554 4.516 16c0 6.446 5.226 11.672 11.672 11.672Zm0-8.914a2.758 2.758 0 1 0 0-5.516 2.758 2.758 0 0 0 0 5.516Z" fill="url(#i)"/><path d="M16.188 27.672c6.446 0 11.672-5.226 11.672-11.672 0-6.446-5.226-11.672-11.672-11.672C9.742 4.328 4.516 9.554 4.516 16c0 6.446 5.226 11.672 11.672 11.672Zm0-8.914a2.758 2.758 0 1 0 0-5.516 2.758 2.758 0 0 0 0 5.516Z" fill="url(#j)"/></g><g filter="url(#k)"><path fill-rule="evenodd" clip-rule="evenodd" d="M16.188 26.922c6.032 0 10.922-4.89 10.922-10.922 0-6.032-4.89-10.922-10.922-10.922-6.032 0-10.922 4.89-10.922 10.922 0 6.032 4.89 10.922 10.922 10.922ZM19.328 16c0 1.523-1.617 3.25-3.14 3.25-1.523 0-3.328-1.727-3.328-3.25s1.805-3.344 3.328-3.344 3.14 1.82 3.14 3.344Z" fill="url(#l)"/></g><path fill-rule="evenodd" clip-rule="evenodd" d="M16.188 19.613a3.613 3.613 0 1 0 0-7.226 3.613 3.613 0 0 0 0 7.226ZM18.946 16a2.758 2.758 0 1 1-5.516 0 2.758 2.758 0 0 1 5.516 0Z" fill="url(#m)"/><g filter="url(#n)"><path d="M13.445 13.648a3.605 3.605 0 0 1 2.743-1.261c1.01 0 1.923.414 2.578 1.082l4.816-4.816a.483.483 0 0 0-.007-.698 10.883 10.883 0 0 0-7.387-2.877 10.888 10.888 0 0 0-7.916 3.397l5.173 5.173Z" fill="url(#o)"/></g><g filter="url(#p)"><path d="M18.54 18.743a3.599 3.599 0 0 1-2.352.87c-.986 0-1.88-.395-2.531-1.035l-4.814 4.814a.483.483 0 0 0 .01.7 10.882 10.882 0 0 0 7.335 2.83 10.877 10.877 0 0 0 7.525-3.006l-5.173-5.173Z" fill="url(#q)"/></g><g filter="url(#r)"><path d="M16.188 19.638a3.638 3.638 0 1 0 0-7.276 3.638 3.638 0 0 0 0 7.276Z" stroke="#EFA141" stroke-width=".05"/></g><g filter="url(#s)"><path d="M28.235 11.574s-.832 7.051-2.102 9.953h-4.69a1.8 1.8 0 0 1-1.802-1.8v-6.353a1.8 1.8 0 0 1 1.801-1.8h6.793Z" fill="url(#t)"/></g><g filter="url(#u)"><path d="M30.079 11.023v9.954h-7.942a1.8 1.8 0 0 1-1.8-1.8v-6.354a1.8 1.8 0 0 1 1.8-1.8h7.942Z" fill="url(#v)"/></g><defs><filter id="a" x="1.797" y="2.109" width="28.781" height="27.781" filterUnits="userSpaceOnUse" color-interpolation-filters="sRGB"><feFlood flood-opacity="0" result="BackgroundImageFix"/><feBlend in="SourceGraphic" in2="BackgroundImageFix" result="shape"/><feColorMatrix in="SourceAlpha" values="0 0 0 0 0 0 0 0 0 0 0 0 0 0 0 0 0 0 127 0" result="hardAlpha"/><feOffset dx=".5"/><feGaussianBlur stdDeviation=".25"/><feComposite in2="hardAlpha" operator="arithmetic" k2="-1" k3="1"/><feColorMatrix values="0 0 0 0 0.294118 0 0 0 0 0.239216 0 0 0 0 0.45098 0 0 0 1 0"/><feBlend in2="shape" result="effect1_innerShadow_18_19772"/><feColorMatrix in="SourceAlpha" values="0 0 0 0 0 0 0 0 0 0 0 0 0 0 0 0 0 0 127 0" result="hardAlpha"/><feOffset dx="-.5"/><feGaussianBlur stdDeviation=".25"/><feComposite in2="hardAlpha" operator="arithmetic" k2="-1" k3="1"/><feColorMatrix values="0 0 0 0 0.439216 0 0 0 0 0.458824 0 0 0 0 0.756863 0 0 0 1 0"/><feBlend in2="effect1_innerShadow_18_19772" result="effect2_innerShadow_18_19772"/></filter><filter id="e" x="19.301" y="11.074" width="10.742" height="10.953" filterUnits="userSpaceOnUse" color-interpolation-filters="sRGB"><feFlood flood-opacity="0" result="BackgroundImageFix"/><feBlend in="SourceGraphic" in2="BackgroundImageFix" result="shape"/><feGaussianBlur stdDeviation=".25" result="effect1_foregroundBlur_18_19772"/></filter><filter id="f" x="3.316" y="3.778" width="24.944" height="24.944" filterUnits="userSpaceOnUse" color-interpolation-filters="sRGB"><feFlood flood-opacity="0" result="BackgroundImageFix"/><feColorMatrix in="SourceAlpha" values="0 0 0 0 0 0 0 0 0 0 0 0 0 0 0 0 0 0 127 0" result="hardAlpha"/><feOffset dx="-.4" dy=".25"/><feGaussianBlur stdDeviation=".4"/><feComposite in2="hardAlpha" operator="out"/><feColorMatrix values="0 0 0 0 0.278431 0 0 0 0 0.196078 0 0 0 0 0.529412 0 0 0 1 0"/><feBlend in2="BackgroundImageFix" result="effect1_dropShadow_18_19772"/><feBlend in="SourceGraphic" in2="effect1_dropShadow_18_19772" result="shape"/></filter><filter id="k" x="5.016" y="4.828" width="22.344" height="22.344" filterUnits="userSpaceOnUse" color-interpolation-filters="sRGB"><feFlood flood-opacity="0" result="BackgroundImageFix"/><feBlend in="SourceGraphic" in2="BackgroundImageFix" result="shape"/><feGaussianBlur stdDeviation=".125" result="effect1_foregroundBlur_18_19772"/></filter><filter id="n" x="8.022" y="4.828" width="15.955" height="9.07" filterUnits="userSpaceOnUse" color-interpolation-filters="sRGB"><feFlood flood-opacity="0" result="BackgroundImageFix"/><feBlend in="SourceGraphic" in2="BackgroundImageFix" result="shape"/><feGaussianBlur stdDeviation=".125" result="effect1_foregroundBlur_18_19772"/></filter><filter id="p" x="8.448" y="18.328" width="15.516" height="8.844" filterUnits="userSpaceOnUse" color-interpolation-filters="sRGB"><feFlood flood-opacity="0" result="BackgroundImageFix"/><feBlend in="SourceGraphic" in2="BackgroundImageFix" result="shape"/><feGaussianBlur stdDeviation=".125" result="effect1_foregroundBlur_18_19772"/></filter><filter id="r" x="12.425" y="12.237" width="7.527" height="7.527" filterUnits="userSpaceOnUse" color-interpolation-filters="sRGB"><feFlood flood-opacity="0" result="BackgroundImageFix"/><feBlend in="SourceGraphic" in2="BackgroundImageFix" result="shape"/><feGaussianBlur stdDeviation=".05" result="effect1_foregroundBlur_18_19772"/></filter><filter id="s" x="18.641" y="10.574" width="10.594" height="11.953" filterUnits="userSpaceOnUse" color-interpolation-filters="sRGB"><feFlood flood-opacity="0" result="BackgroundImageFix"/><feBlend in="SourceGraphic" in2="BackgroundImageFix" result="shape"/><feGaussianBlur stdDeviation=".5" result="effect1_foregroundBlur_18_19772"/></filter><filter id="u" x="20.337" y="10.823" width="9.942" height="10.303" filterUnits="userSpaceOnUse" color-interpolation-filters="sRGB"><feFlood flood-opacity="0" result="BackgroundImageFix"/><feBlend in="SourceGraphic" in2="BackgroundImageFix" result="shape"/><feColorMatrix in="SourceAlpha" values="0 0 0 0 0 0 0 0 0 0 0 0 0 0 0 0 0 0 127 0" result="hardAlpha"/><feOffset dy=".2"/><feGaussianBlur stdDeviation=".075"/><feComposite in2="hardAlpha" operator="arithmetic" k2="-1" k3="1"/><feColorMatrix values="0 0 0 0 0.94902 0 0 0 0 0.913725 0 0 0 0 0.988235 0 0 0 1 0"/><feBlend in2="shape" result="effect1_innerShadow_18_19772"/><feColorMatrix in="SourceAlpha" values="0 0 0 0 0 0 0 0 0 0 0 0 0 0 0 0 0 0 127 0" result="hardAlpha"/><feOffset dx=".2" dy="-.2"/><feGaussianBlur stdDeviation=".15"/><feComposite in2="hardAlpha" operator="arithmetic" k2="-1" k3="1"/><feColorMatrix values="0 0 0 0 0.713726 0 0 0 0 0.564706 0 0 0 0 0.823529 0 0 0 1 0"/><feBlend in2="effect1_innerShadow_18_19772" result="effect2_innerShadow_18_19772"/></filter><linearGradient id="b" x1="16.188" y1="2.109" x2="16.188" y2="29.891" gradientUnits="userSpaceOnUse"><stop stop-color="#6261B8"/><stop offset="1" stop-color="#5D3687"/></linearGradient><linearGradient id="c" x1="30.454" y1="29.891" x2="22.016" y2="22.5" gradientUnits="userSpaceOnUse"><stop stop-color="#5E328B"/><stop offset="1" stop-color="#5E328B" stop-opacity="0"/></linearGradient><linearGradient id="g" x1="16.188" y1="4.328" x2="16.188" y2="27.672" gradientUnits="userSpaceOnUse"><stop stop-color="#E9CE53"/><stop offset="1" stop-color="#FF974E"/></linearGradient><linearGradient id="l" x1="16.188" y1="9.688" x2="16.188" y2="26.922" gradientUnits="userSpaceOnUse"><stop stop-color="#F4BD5B"/><stop offset="1" stop-color="#FF9E54"/></linearGradient><linearGradient id="o" x1="23.728" y1="8.438" x2="12.641" y2="8.438" gradientUnits="userSpaceOnUse"><stop stop-color="#FFF25C"/><stop offset="1" stop-color="#FFF25C" stop-opacity="0"/></linearGradient><linearGradient id="q" x1="12.172" y1="19.281" x2="18.36" y2="21.156" gradientUnits="userSpaceOnUse"><stop stop-color="#FFD05A"/><stop offset="1" stop-color="#FFD05A" stop-opacity="0"/></linearGradient><linearGradient id="t" x1="24.515" y1="11.574" x2="24.515" y2="21.527" gradientUnits="userSpaceOnUse"><stop stop-color="#E86F47" stop-opacity="0"/><stop offset="0" stop-color="#C87C46"/><stop offset="1" stop-color="#E86F47"/></linearGradient><linearGradient id="v" x1="25.208" y1="11.023" x2="25.208" y2="20.977" gradientUnits="userSpaceOnUse"><stop offset=".205" stop-color="#F8DFFF"/><stop offset=".72" stop-color="#C5ADDD"/></linearGradient><radialGradient id="d" cx="0" cy="0" r="1" gradientUnits="userSpaceOnUse" gradientTransform="matrix(0 8.4375 -.9375 0 30.079 20.813)"><stop offset=".196" stop-color="#644D98"/><stop offset="1" stop-color="#644D98" stop-opacity="0"/></radialGradient><radialGradient id="h" cx="0" cy="0" r="1" gradientUnits="userSpaceOnUse" gradientTransform="matrix(-6.62491 15.54693 -13.6117 -5.80027 17.204 12.125)"><stop offset=".868" stop-color="#FF684C" stop-opacity="0"/><stop offset=".987" stop-color="#FF684C"/></radialGradient><radialGradient id="i" cx="0" cy="0" r="1" gradientUnits="userSpaceOnUse" gradientTransform="rotate(-148.057 13.502 6.686) scale(19.0988 14.9191)"><stop offset=".887" stop-color="#B99C5E" stop-opacity="0"/><stop offset=".979" stop-color="#B99C5E"/></radialGradient><radialGradient id="j" cx="0" cy="0" r="1" gradientUnits="userSpaceOnUse" gradientTransform="rotate(-37.405 33.088 -10.562) scale(15.4464)"><stop offset=".894" stop-color="#FFE86D" stop-opacity="0"/><stop offset=".991" stop-color="#FFE86D"/></radialGradient><radialGradient id="m" cx="0" cy="0" r="1" gradientUnits="userSpaceOnUse" gradientTransform="translate(13.329 16) scale(7.6875)"><stop offset=".62" stop-color="#F8AE59"/><stop offset="1" stop-color="#D48B52"/></radialGradient></defs></svg>
